!!!!SEGMENT: pl-cz--i-8--001-004_danka--missa-es-et-incarnatus.krn
!!!cenid: 18xx:724
!!!COM: Danka
!!!COM-rismID: pe30085946
!!!CDT: <1790->1810
!!!CNT:
!!!OPR: Missa Es
!!!OTL: Et incarnatus
!!!OMV: 004
!!!PDT: 1800
!!!AGN: Sacred; Mass
!!!SMS-siglum: PL-CZ
!!!SMS-shelfmark: I-8
!!!SMS-shelfwork: 001-004 M
!!!SMS-variant:
!!!SMS-altvar:
!!!NIFC-rismSourceID: 300000103
!!!NIFC-rismChildID: 300000103
!!!NIFC-islandoraID: pl-cz:31970
!!!URL-pdf-islandora: https://repozytorium.nifc.pl/islandora/object/pl-cz%3A31970/datastream/PDF/view
!!!URL-scan: https://polish.musicsources.pl/pl/lokalizacje/galeria/rekopisy/6749/1 @EN{Scan on Polish Music Sources Website} @PL{Skany w portalu Dziedzictwo Muzyki Polskiej w otwartym dostępie}
!!!IIIF:
!!!ONB-nifc: UWAGA: części Mszy: Kyrie, Gloria, Credo, Et incarnatus, Et resurrexit, Sanctus, Benedictus, Agnus Dei, Dona nobis
!!!AIN: 1 alto 2 clars 3 empty 1 fagot 1 organ 1 tenor 2 violn 1 vox
!!!key:
**kern	**fba	**kern	**dynam	**kern	**kern	**text	**kern	**text	**kern	**text	**kern	**text	**kern	**dynam	**kern	**dynam	**kern	**dynam	**kern	**dynam	**kern	**dynam
*part12	*	*part11	*part11	*part10	*part9	*part9	*part8	*part8	*part7	*part7	*part6	*part6	*part5	*part5	*part4	*part4	*part3	*part3	*part2	*part2	*part1	*part1
*staff12	*	*staff11	*	*staff10	*staff9	*staff9	*staff8	*staff8	*staff7	*staff7	*staff6	*staff6	*staff5	*	*staff4	*	*staff3	*	*staff2	*	*staff1	*
*Iorgan	*	*Ivioln	*	*Ivioln	*Iempty	*	*Itenor	*	*Ialto	*	*Ivox	*	*Iempty	*	*Iempty	*	*Ifagot	*	*Iclars	*	*Iclars	*
*I"Organo	*	*I"Violino IIdo	*	*I"Violino Primo.	*I"Baſso.	*	*I"Tenore	*	*I"Alto	*	*I"Canto.	*	*I"Cornu Secundo in Es.	*	*I"Cornu Primo in Es.	*	*I"Fagotto Obligato.	*	*I"Clarinetto. IIdo in Es.	*	*I"Clarinetto Primo. in Dis	*
*I'org	*	*I'vl 2	*	*I'vl 1	*I'B	*	*I'T	*	*I'A	*	*I'C	*	*I'cor 2 in E♭	*	*I'cor 1 in E♭	*	*I'fag	*	*I'cl 2 in E♭	*	*I'cl 1 in D♯	*
*clefF4	*	*clefG2	*	*clefG2	*clefF4	*	*clefC4	*	*clefC3	*	*clefC1	*	*clefG2	*	*clefG2	*	*clefF4	*	*clefG2	*	*clefG2	*
*	*	*	*	*	*	*	*	*	*	*	*	*	*ITrd5c9	*	*ITrd5c9	*	*	*	*ITrd1c2	*	*ITrd1c2	*
*k[b-e-a-]	*	*k[b-e-a-]	*	*k[b-e-a-]	*k[b-e-a-]	*	*k[a-e-b-]	*	*k[a-d-e-]	*	*k[c-a-e-b-]	*	*k[b-e-a-]	*	*k[b-e-a-]	*	*k[b-e-a-]	*	*k[b-e-a-]	*	*k[b-e-a-]	*
*E-:	*	*E-:	*	*E-:	*E-:	*	*E-:	*	*E-:	*	*E-:	*	*E-:	*	*E-:	*	*E-:	*	*E-:	*	*E-:	*
*M2/4	*	*M2/4	*	*M2/4	*M2/4	*	*M2/4	*	*M2/4	*	*M2/4	*	*M2/4	*	*M2/4	*	*M2/4	*	*M2/4	*	*M2/4	*
!LO:TX:a:t=P:problem=caudy w dół najczęściej na środku, także po prawej stronie	!	!	!	!	!	!	!	!	!	!	!	!	!	!	!	!	!LO:TX:a:t=P:problem=caudy w dół na środku	!	!LO:TX:a:t=P:problem=w źródle błędny zapis transpozycji instrumentu - użyto klarnetu w stroju B	!	!LO:TX:a:t=P:problem=w źródle błędny zapis transpozycji instrumentu - użyto klarnetu w stroju B	!
!	!	!	!	!	!	!	!	!	!	!	!	!	!	!	!	!	!LO:TX:a:t=P:problem=adnotacja "Soli" i kolejne zapisane czerwonym atramentem	!	!	!	!	!
!LO:TX:a:t=P:problem=przy kluczu zapisane bemole BB-, E-, A-	!	!LO:TX:b:t=Et incarnatus	!	!LO:TX:b:t=Et incarnatus	!	!	!	!	!	!	!	!	!	!	!	!	!LO:TX:b:t=Et incarnatus	!	!	!	!	!
!LO:TX:a:t=P:problem=wszystkie oznaczenia instrumentów zapisane są czerwonym atramentem	!	!LO:TX:a:t=Solo:problem=zapisane czerwonym atramentem	!	!	!LO:TX:a:t=P:problem=caudy 4 i 8 w dół najczęściej na środku, też po prawej i lewej stronie	!	!LO:TX:a:t=P:problem=caudy 4 i 8 w dół na środku	!	!LO:TX:a:t=P:problem=caudy 4 i 8 w dół najczęściej na środku, czasem po prawej stronie	!	!LO:TX:a:t=P:problem=caudy 4 i 8 w dół najczęściej na środku lub po prawej stronie	!	!LO:TX:a:t=P:problem=caudy 4 i 8 w dół na środku	!	!LO:TX:a:t=P:problem=caudy 4 i 8 w dół na środku	!	!LO:TX:a:t=Adagio	!	!LO:TX:a:t=P:problem=caudy w dół najczęściej na środku, także po prawej stronie	!	!LO:TX:a:t=P:problem=caudy w dół na środku i po prawej stronie	!
!LO:TX:b:t=Et incarnatus	!	!LO:TX:a:t=P:problem=caudy 4, 8 i 16 w dół na środku	!	!LO:TX:a:t=P:problem=caudy w dół na środku	!LO:TX:a:t=P:problem=przy kluczu bemole BB-, E-, A-	!	!	!	!LO:TX:a:t=P:problem=błędnie zapisane znaki przy kluczu	!	!	!	!LO:TX:b:t=Et incarnatus.	!	!LO:TX:b:t=Et incarnatus	!	!LO:TX:a:t=Soli	!	!LO:TX:b:t=Et incarnatus	!	!LO:TX:b:t=Et incarnatus	!
!LO:TX:a:t=Adagio	!	!LO:TX:a:t=Adagio	!	!LO:TX:a:t=Adagio Solo	!LO:TX:a:t=Adagio	!	!LO:TX:a:t=Adagio	!	!LO:TX:a:t=Adagio	!	!LO:TX:a:t=Adagio	!	!LO:TX:a:t=Adagio	!	!LO:TX:a:t=Adagio	!	!LO:TX:a:t=P:problem=przy kluczu bemol na wysokości A- zamiast AA-	!	!LO:TX:a:t=Adagio	!	!LO:TX:a:t=Adagio	!
!	!	!	!	!	!	!	!	!	!LO:SIC:t=przy kluczu bemol d-, brak bemola b-:v	!	!LO:SIC:t=przy kluczu także bemol c-, różni się trochę wyglądem od pozostałych bemoli:v	!	!	!	!	!	!	!	!	!	!	!
8r	.	32g/LLL	.	(32ee-\LLL	8r	.	8r	.	8r	.	8r	.	8r	.	8r	.	8r	.	8r	.	8r	.
.	.	32f/	.	32dd\	.	.	.	.	.	.	.	.	.	.	.	.	.	.	.	.	.	.
.	.	32g/	.	32ee-\	.	.	.	.	.	.	.	.	.	.	.	.	.	.	.	.	.	.
.	.	32a-/JJJ	.	32ff\JJJ)	.	.	.	.	.	.	.	.	.	.	.	.	.	.	.	.	.	.
=1	=1	=1	=1	=1	=1	=1	=1	=1	=1	=1	=1	=1	=1	=1	=1	=1	=1	=1	=1	=1	=1	=1
*^	*	*	*	*	*	*	*	*	*	*	*	*	*	*	*	*	*	*	*	*	*	*
*cue	*	*	*	*	*	*	*	*	*	*	*	*	*	*	*	*	*	*	*	*	*	*	*
!	!	!	!	!	!	!	!	!	!	!	!	!	!	!LO:TX:a:t=Soli:problem=ta i kolejne adnotacje zapisane czerwonym atramentem	!	!LO:TX:a:t=Soli:problem=ta i kolejne adnotacje zapisane czerwonym atramentem	!	!	!	!LO:TX:a:t=Soli:problem=ta i kolejne adnotacje zapisane czerwonym atramentem	!	!LO:TX:a:t=Soli:problem=ta i kolejne adnotacje zapisane czerwonym atramentem	!
!LO:TX:a:t=Fagotto	!	!	!	!	!	!	!	!	!	!	!	!	!	!	!	!	!	!	!	!	!	!	!
!	!	!	!	!	!	!LO:N:vis=00	!	!LO:N:vis=00	!	!LO:N:vis=00	!	!LO:N:vis=00	!	!	!	!	!	!	!	!	!	!	!
8rc	8E-\	.	8b-\	.	8gg\	0r	.	0r	.	0r	.	0r	.	8r	.	8r	.	8r	.	8r	.	8r	.
!	!	!	!	!	!	!	!	!	!	!	!	!	!	!	!	!	!	!	!	!LO:TUP:a:problem=klamra łukowa, numer	!	!LO:TUP:a:problem=klamra łukowa, numer	!
8E-/L	8r	.	8r	.	8r	.	.	.	.	.	.	.	.	8G/L	.	8e-\L	.	8E-\L	.	24ee-\LL	.	24gg\LL	.
.	.	.	.	.	.	.	.	.	.	.	.	.	.	.	.	.	.	.	.	24ff\	.	24aa-\	.
.	.	.	.	.	.	.	.	.	.	.	.	.	.	.	.	.	.	.	.	24ee-\JJ	.	24gg\JJ	.
8B-/J	8r	.	8r	.	8r	.	.	.	.	.	.	.	.	8B-/J	.	8f\J	.	8B-\J	.	8dd\|	.	8ff\|	.
8rc	8r	.	(32f/LLL	.	(32dd\LLL	.	.	.	.	.	.	.	.	8r	.	8r	.	8r	.	8r	.	8r	.
.	.	.	32e-/	.	32cc\	.	.	.	.	.	.	.	.	.	.	.	.	.	.	.	.	.	.
.	.	.	32f/	.	32dd\	.	.	.	.	.	.	.	.	.	.	.	.	.	.	.	.	.	.
.	.	.	32g/JJJ)	.	32ee-\JJJ)	.	.	.	.	.	.	.	.	.	.	.	.	.	.	.	.	.	.
=2	=2	=2	=2	=2	=2	=2	=2	=2	=2	=2	=2	=2	=2	=2	=2	=2	=2	=2	=2	=2	=2	=2	=2
8rG	8BB-/	.	8a-/	.	8ff\|	.	.	.	.	.	.	.	.	8r	.	8r	.	8r	.	8r	.	8r	.
!LO:TX:a:t=—:problem=ta i kolejne poziome kreski (oprócz należących do zapisu b.c.) zapisane czerwonym atramentem	!	!	!	!	!	!	!	!	!	!	!	!	!	!	!	!	!	!	!	!LO:TUP:a:problem=klamra łukowa, numer	!	!LO:TUP:a:problem=klamra łukowa, numer	!
8BB-/L	8r	.	8r	.	8r	.	.	.	.	.	.	.	.	8B-/L	.	8f\L	.	8BB-/L	.	24ff\LL	.	24aa-\LL	.
.	.	.	.	.	.	.	.	.	.	.	.	.	.	.	.	.	.	.	.	24gg\	.	24bb-\	.
.	.	.	.	.	.	.	.	.	.	.	.	.	.	.	.	.	.	.	.	24ff\JJ	.	24aa-\JJ	.
8E-/J	4r	.	8r	.	8r	.	.	.	.	.	.	.	.	8G/J	.	8e-\J	.	8E-/J	.	8ee-\|	.	8gg\	.
8rB	.	.	32e-/LLL	.	32g/LLL	.	.	.	.	.	.	.	.	8r	.	8r	.	8r	.	8r	.	8rdd	.
.	.	.	(32d/	.	(32f/	.	.	.	.	.	.	.	.	.	.	.	.	.	.	.	.	.	.
.	.	.	32e-/	.	32g/	.	.	.	.	.	.	.	.	.	.	.	.	.	.	.	.	.	.
.	.	.	32f/JJJ)	.	32a-/JJJ)	.	.	.	.	.	.	.	.	.	.	.	.	.	.	.	.	.	.
=3	=3	=3	=3	=3	=3	=3	=3	=3	=3	=3	=3	=3	=3	=3	=3	=3	=3	=3	=3	=3	=3	=3	=3
!	!	!	!	!	!	!	!	!	!	!	!	!	!	!	!	!	!	!LO:TX:a:t=P:problem=mixed beam	!	!	!	!	!
8E-/	8r	.	8g/L	.	8b-/L	.	.	.	.	.	.	.	.	4e-\	.	4g\	.	8E-\L	.	4gg\	.	4bb-\	.
!	!LO:TX:a:t=P:problem=mixed beam	!	!	!	!	!	!	!	!	!	!	!	!	!	!	!	!	!	!	!	!	!	!
8ryy	8E-\L	.	(16e-/L	.	16g/L	.	.	.	.	.	.	.	.	.	.	.	.	8E-\	.	.	.	.	.
.	.	.	16g/JJ)	.	16b-/JJ	.	.	.	.	.	.	.	.	.	.	.	.	.	.	.	.	.	.
4ryy	8B-\	.	(16g/LL	.	16b-/LL	.	.	.	.	.	.	.	.	4B-/	.	4f\	.	8B-\	.	4ff\	.	4aa-\	.
.	.	.	16f/)	.	16a-/	.	.	.	.	.	.	.	.	.	.	.	.	.	.	.	.	.	.
.	8BB-/J	.	(16e-/	.	16g/	.	.	.	.	.	.	.	.	.	.	.	.	8BB-/J	.	.	.	.	.
.	.	.	16d/JJ)	.	16f/JJ	.	.	.	.	.	.	.	.	.	.	.	.	.	.	.	.	.	.
*Xcue	*	*	*	*	*	*	*	*	*	*	*	*	*	*	*	*	*	*	*	*	*	*	*
!	!	!	!LO:LB:g=original	!	!	!	!	!	!	!	!	!	!	!	!	!	!	!	!	!	!	!	!
*v	*v	*	*	*	*	*	*	*	*	*	*	*	*	*	*	*	*	*	*	*	*	*	*
=4	=4	=4	=4	=4	=4	=4	=4	=4	=4	=4	=4	=4	=4	=4	=4	=4	=4	=4	=4	=4	=4	=4
4E-\	.	8e-/L	.	8g/L	.	.	.	.	.	.	.	.	8G/L	.	8e-\L	.	8E-\L	.	8ee-\L	.	8gg\L	.
.	.	8B-/J	.	8g/J	.	.	.	.	.	.	.	.	8G/	.	8e-\	.	8E-\	.	(32ee-\LL	.	(32gg\LL	.
.	.	.	.	.	.	.	.	.	.	.	.	.	.	.	.	.	.	.	32dd\)	.	32ff\	.
.	.	.	.	.	.	.	.	.	.	.	.	.	.	.	.	.	.	.	32ee-\	.	32gg\	.
.	.	.	.	.	.	.	.	.	.	.	.	.	.	.	.	.	.	.	32ff\JJJ	.	32aa-\JJJ)	.
4r	.	8r	.	8r	.	.	.	.	.	.	.	.	8G/J	.	8e-\J	.	8E-\J	.	8ee-\	.	8gg\	.
.	.	32g/LLL	.	(32ee-\LLL	.	.	.	.	.	.	.	.	8r	.	8r	.	8r	.	8rcc	.	8r	.
.	.	(32f/	.	32dd\	.	.	.	.	.	.	.	.	.	.	.	.	.	.	.	.	.	.
.	.	32g/	.	32ee-\	.	.	.	.	.	.	.	.	.	.	.	.	.	.	.	.	.	.
.	.	32a-/JJJ)	.	32ff\JJJ)	.	.	.	.	.	.	.	.	.	.	.	.	.	.	.	.	.	.
!	!	!	!	!LO:LB:g=original	!	!	!	!	!	!	!	!	!LO:LB:g=original	!	!	!	!	!	!LO:LB:g=original	!	!LO:LB:g=original	!
=5	=5	=5	=5	=5	=5	=5	=5	=5	=5	=5	=5	=5	=5	=5	=5	=5	=5	=5	=5	=5	=5	=5
*^	*	*	*	*	*	*	*	*	*	*	*	*	*	*	*	*	*	*	*	*	*	*
*cue	*	*	*	*	*	*	*	*	*	*	*	*	*	*	*	*	*	*	*	*	*	*	*
!	!	!	!	!	!	!LO:N:vis=00	!	!LO:N:vis=00	!	!LO:N:vis=00	!	!LO:N:vis=00	!	!	!	!	!	!	!	!	!	!	!
8rc	8E-\	.	8b-/	.	8gg\	0r	.	0r	.	0r	.	0r	.	8r	.	8r	.	8r	.	8r	.	8r	.
*	*	*	*	*	*	*	*	*	*	*	*	*	*	*	*	*	*	*	*	*	*	*Xtuplet	*
!	!	!	!	!	!	!	!	!	!	!	!	!	!	!	!	!	!	!	!	!LO:TUP:a:problem=klamra łukowa, numer	!	!	!
8E-/L	8r	.	8r	.	8r	.	.	.	.	.	.	.	.	8G/L	.	8e-\L	.	8E-\L	.	24ee-\LL	.	24gg\LL	.
.	.	.	.	.	.	.	.	.	.	.	.	.	.	.	.	.	.	.	.	24ff\	.	24aa-\	.
.	.	.	.	.	.	.	.	.	.	.	.	.	.	.	.	.	.	.	.	24ee-\JJ	.	24gg\JJ	.
8B-/J	4r	.	8r	.	8r	.	.	.	.	.	.	.	.	8B-/J	.	8f\J	.	8B-\J	.	8dd\|	.	8ff\	.
8rc	.	.	32f/LLL	.	(32dd\LLL	.	.	.	.	.	.	.	.	8r	.	8r	.	8r	.	8r	.	8rcc	.
.	.	.	(32e-/	.	32cc\	.	.	.	.	.	.	.	.	.	.	.	.	.	.	.	.	.	.
.	.	.	32f/	.	32dd\	.	.	.	.	.	.	.	.	.	.	.	.	.	.	.	.	.	.
.	.	.	32g/JJJ)	.	32ee-\JJJ)	.	.	.	.	.	.	.	.	.	.	.	.	.	.	.	.	.	.
!LO:LB:g=original	!LO:LB:g=original	!	!	!	!	!	!	!	!	!	!	!	!	!	!	!	!	!LO:LB:g=original	!	!	!	!	!
=6	=6	=6	=6	=6	=6	=6	=6	=6	=6	=6	=6	=6	=6	=6	=6	=6	=6	=6	=6	=6	=6	=6	=6
8rc	8BB-/	.	8a-/	.	8ff\	.	.	.	.	.	.	.	.	8r	.	8r	.	8r	.	8r	.	8r	.
!	!	!	!	!	!	!	!	!	!	!	!	!	!	!	!	!	!	!	!	!LO:TUP:a:problem=klamra łukowa, numer	!	!	!
8BB-/L	8rGG	.	8r	.	8r	.	.	.	.	.	.	.	.	8B-/L	.	8f\L	.	8BB-/L	.	24ff\LL	.	24aa-\LL	.
.	.	.	.	.	.	.	.	.	.	.	.	.	.	.	.	.	.	.	.	24gg\	.	24bb-\	.
.	.	.	.	.	.	.	.	.	.	.	.	.	.	.	.	.	.	.	.	24ff\JJ	.	24aa-\JJ	.
8E-/J	4rBB	.	8r	.	8r	.	.	.	.	.	.	.	.	8G/J	.	8e-\J	.	8E-/J	.	8ee-\	.	8gg\	.
8rc	.	.	(32e-'/LLL	.	32g/LLL	.	.	.	.	.	.	.	.	8r	.	8r	.	8r	.	8r	.	8rcc	.
.	.	.	32d'/	.	32f/	.	.	.	.	.	.	.	.	.	.	.	.	.	.	.	.	.	.
.	.	.	32e-/)	.	32g/	.	.	.	.	.	.	.	.	.	.	.	.	.	.	.	.	.	.
.	.	.	32f/JJJ	.	32a-/JJJ	.	.	.	.	.	.	.	.	.	.	.	.	.	.	.	.	.	.
!	!	!	!	!	!	!	!	!	!	!	!	!	!	!	!	!LO:LB:g=original	!	!	!	!	!	!	!
=7	=7	=7	=7	=7	=7	=7	=7	=7	=7	=7	=7	=7	=7	=7	=7	=7	=7	=7	=7	=7	=7	=7	=7
8E-/	8r	.	8g/L	.	8b-/L	.	.	.	.	.	.	.	.	4e-\	.	4g\	.	4E-\	.	4gg\	.	4bb-\	.
8ryy	8E-\L	.	(16e-/L	.	16g/L	.	.	.	.	.	.	.	.	.	.	.	.	.	.	.	.	.	.
.	.	.	16g/JJ)	.	16b-/JJ	.	.	.	.	.	.	.	.	.	.	.	.	.	.	.	.	.	.
4ryy	8A-\	6	(16g/LL	.	(16b-/LL	.	.	.	.	.	.	.	.	8f\L	.	8a-\L	.	8A-\L	.	8ff\L	.	8aa-\L	.
.	.	.	16f'/)	.	16a-/)	.	.	.	.	.	.	.	.	.	.	.	.	.	.	.	.	.	.
.	8An\J	5	(16f/	.	(16a-/	.	.	.	.	.	.	.	.	8e-\J	.	8g\J	.	8An\J	.	8ee-\J	.	8gg\J	.
.	.	.	16e-/JJ)	.	16g/JJ)	.	.	.	.	.	.	.	.	.	.	.	.	.	.	.	.	.	.
*Xcue	*	*	*	*	*	*	*	*	*	*	*	*	*	*	*	*	*	*	*	*	*	*	*
*v	*v	*	*	*	*	*	*	*	*	*	*	*	*	*	*	*	*	*	*	*	*	*	*
=8	=8	=8	=8	=8	=8	=8	=8	=8	=8	=8	=8	=8	=8	=8	=8	=8	=8	=8	=8	=8	=8	=8
!LO:TX:a:t=P:problem=mixed beam	!	!	!	!	!	!	!	!	!	!	!	!	!	!LO:DY:a:t=forte	!	!	!LO:TX:a:t=P:problem=mixed beam	!	!	!	!	!
8B-\L	4	8e-/L	.	8g/L	.	.	.	.	.	.	.	.	8e-\L	f	8g\L	.	8B-\L	.	8ee-\L	.	8gg\L	.
8BB-/J	3:	8d/J	.	8f/J	.	.	.	.	.	.	.	.	8B-\J	.	8f\J	.	8BB-/J	.	8dd\J	.	8ff\J	.
4A-X\	.	16r	.	16r	.	.	.	.	.	.	.	.	4B-/	.	4B-/	.	4A-X\	.	4dd\	.	4ff\	.
.	.	16f/LL|	.	16dd'\LL	.	.	.	.	.	.	.	.	.	.	.	.	.	.	.	.	.	.
.	.	16f/|	.	16dd\|	.	.	.	.	.	.	.	.	.	.	.	.	.	.	.	.	.	.
.	.	16f/JJ|	.	16dd\JJ|	.	.	.	.	.	.	.	.	.	.	.	.	.	.	.	.	.	.
!	!	!LO:LB:g=original	!	!	!	!	!	!	!	!	!	!	!	!	!	!	!	!	!	!	!	!
=9	=9	=9	=9	=9	=9	=9	=9	=9	=9	=9	=9	=9	=9	=9	=9	=9	=9	=9	=9	=9	=9	=9
!	!	!	!	!	!	!	!	!	!	!	!	!	!LO:TX:a:t=P:problem=ligatury mają kształt jakby znajdowały się pod nutami, jednak znajdują się nad nimi	!	!	!	!	!	!	!	!	!
!	!	!	!	!	!LO:N:vis=00	!	!LO:N:vis=00	!	!LO:N:vis=00	!	!LO:N:vis=00	!	!	!	!	!	!	!	!	!	!	!
4G\	6	(32e-/LLL	.	(32ee-\LLL	0r	.	0r	.	0r	.	0r	.	[2B-/	.	2B-/	.	4G\	.	4ee-\	.	4gg\	.
.	.	32d/	.	32dd\	.	.	.	.	.	.	.	.	.	.	.	.	.	.	.	.	.	.
.	.	32e-/	.	32ee-\	.	.	.	.	.	.	.	.	.	.	.	.	.	.	.	.	.	.
.	.	32f/JJ)	.	32ff\JJ)	.	.	.	.	.	.	.	.	.	.	.	.	.	.	.	.	.	.
.	.	8e-'/J	.	8ee-\J|	.	.	.	.	.	.	.	.	.	.	.	.	.	.	.	.	.	.
4D\	6 5	16r	.	16r	.	.	.	.	.	.	.	.	.	.	.	.	4D\	.	4ff\	.	4aa-\	.
.	.	16f'/LL	.	16ff'\LL	.	.	.	.	.	.	.	.	.	.	.	.	.	.	.	.	.	.
.	.	16f'/	.	16ff'\	.	.	.	.	.	.	.	.	.	.	.	.	.	.	.	.	.	.
.	.	16f'/JJ	.	16ff'\JJ	.	.	.	.	.	.	.	.	.	.	.	.	.	.	.	.	.	.
!	!	!	!	!LO:LB:g=original	!	!	!	!	!	!	!	!	!	!	!	!	!	!	!	!	!	!
=10	=10	=10	=10	=10	=10	=10	=10	=10	=10	=10	=10	=10	=10	=10	=10	=10	=10	=10	=10	=10	=10	=10
4E-\	.	(32g/LLL	.	(32gg\LLL	.	.	.	.	.	.	.	.	2B-/_	.	2B-/	.	4E-\	.	4ee-\	.	4gg\	.
.	.	32f/	.	32ff\	.	.	.	.	.	.	.	.	.	.	.	.	.	.	.	.	.	.
.	.	32g/)	.	32gg\	.	.	.	.	.	.	.	.	.	.	.	.	.	.	.	.	.	.
.	.	32a-/JJJ	.	32aa-\JJ)	.	.	.	.	.	.	.	.	.	.	.	.	.	.	.	.	.	.
.	.	8g/	.	8gg'\J	.	.	.	.	.	.	.	.	.	.	.	.	.	.	.	.	.	.
4A-\	4 2	16r	.	16r	.	.	.	.	.	.	.	.	.	.	.	.	4A-\	.	4dd\	.	4ff\	.
.	.	16d/LL|	.	16dd'\LL	.	.	.	.	.	.	.	.	.	.	.	.	.	.	.	.	.	.
.	.	16d/|	.	16dd'\	.	.	.	.	.	.	.	.	.	.	.	.	.	.	.	.	.	.
.	.	16d/JJ|	.	16dd'\JJ	.	.	.	.	.	.	.	.	.	.	.	.	.	.	.	.	.	.
=11	=11	=11	=11	=11	=11	=11	=11	=11	=11	=11	=11	=11	=11	=11	=11	=11	=11	=11	=11	=11	=11	=11
4G\	6	32e-/LLL	.	(32ee-\LLL	.	.	.	.	.	.	.	.	2B-/_	.	2B-/	.	4G\	.	4ee-\	.	4gg\	.
.	.	(32d/	.	32dd\	.	.	.	.	.	.	.	.	.	.	.	.	.	.	.	.	.	.
.	.	32e-/	.	32ee-\	.	.	.	.	.	.	.	.	.	.	.	.	.	.	.	.	.	.
.	.	32f/JJJ)	.	32ff\JJ)	.	.	.	.	.	.	.	.	.	.	.	.	.	.	.	.	.	.
.	.	8e-/	.	8ee-\J|	.	.	.	.	.	.	.	.	.	.	.	.	.	.	.	.	.	.
4D\	6 5	16r	.	16r	.	.	.	.	.	.	.	.	.	.	.	.	4D\	.	4ff\	.	4aa-\	.
.	.	16f'/LL	.	16ff\LL|	.	.	.	.	.	.	.	.	.	.	.	.	.	.	.	.	.	.
.	.	16f'/	.	16ff'\	.	.	.	.	.	.	.	.	.	.	.	.	.	.	.	.	.	.
.	.	16f'/JJ	.	16ff'\JJ	.	.	.	.	.	.	.	.	.	.	.	.	.	.	.	.	.	.
!	!	!	!	!	!	!	!	!	!	!	!	!	!	!	!	!	!	!	!LO:LB:g=original	!	!	!
=12	=12	=12	=12	=12	=12	=12	=12	=12	=12	=12	=12	=12	=12	=12	=12	=12	=12	=12	=12	=12	=12	=12
!LO:TX:a:t=P:problem=mixed beam	!	!LO:TUP:b:problem=klamra łukowa, numer	!	!LO:TUP:a:problem=klamra łukowa, '3' nad triolą	!	!	!	!	!	!	!	!	!	!	!	!	!	!	!	!	!	!
8E-\L	.	24g/LL	.	24gg\LL	.	.	.	.	.	.	.	.	8B-/]	.	8B-/	.	8E-\	.	8ee-\	.	8gg\	.
.	.	24a-/	.	24ff\	.	.	.	.	.	.	.	.	.	.	.	.	.	.	.	.	.	.
.	.	24b-/JJ	.	24gg\J	.	.	.	.	.	.	.	.	.	.	.	.	.	.	.	.	.	.
!	!	!LO:TUP:b:problem=klamra łukowa, numer	!	!LO:TUP:a:problem=klamra łukowa, '3' nad triolą	!	!	!	!	!	!	!	!	!	!	!	!	!	!	!LO:TX:a:t=Soli	!	!	!
8A-\	6	24cc/LL	.	24aa-\L	.	.	.	.	.	.	.	.	8r	.	8r	.	8r	.	8r	.	8rdd	.
.	.	24b-/	.	24gg\	.	.	.	.	.	.	.	.	.	.	.	.	.	.	.	.	.	.
.	.	24a-/JJ	.	24ff\JJ	.	.	.	.	.	.	.	.	.	.	.	.	.	.	.	.	.	.
!	!	!	!	!	!	!	!	!	!	!	!	!	!	!	!	!	!LO:TX:a:t=Soli	!	!	!	!	!
8B-\	4	8g/L	.	8ee-\L	.	.	.	.	.	.	.	.	4r	.	4r	.	4r	.	4r	.	4r	.
8BB-/J	3	8f/J	.	8dd\J	.	.	.	.	.	.	.	.	.	.	.	.	.	.	.	.	.	.
!	!	!	!	!	!	!	!	!	!	!	!	!	!	!	!	!	!	!	!	!	!LO:LB:g=original	!
=13	=13	=13	=13	=13	=13	=13	=13	=13	=13	=13	=13	=13	=13	=13	=13	=13	=13	=13	=13	=13	=13	=13
*^	*	*	*	*	*	*	*	*	*	*	*	*	*	*	*	*	*	*	*	*	*	*
*cue	*	*	*	*	*	*	*	*	*	*	*	*	*	*	*	*	*	*	*	*	*	*	*
!	!	!	!	!	!	!	!	!	!	!	!	!	!	!	!	!LO:TX:a:t=Soli	!	!	!	!	!	!LO:TX:a:t=Soli	!
4r	4E-\	.	4g/	.	4ee-\	8r	.	8r	.	8r	.	8r	.	8r	.	8r	.	8r	.	16ee-\LL	.	16gg\LL	.
.	.	.	.	.	.	.	.	.	.	.	.	.	.	.	.	.	.	.	.	16gg\JJ	.	16bb-\JJ	.
!	!	!	!	!	!	!	!	!	!	!LO:SIC:s=(8b-,<\:v	!	!	!	!LO:TX:a:t=Soli	!	!	!	!LO:TX:a:t=P:problem=mixed beam	!	!	!	!	!
.	.	.	.	.	.	8E-\L	Et	(8e-\	Et	(8b,<\	Et	(8gg\	Et	8e-\L	.	8g\L	.	8E-\L	.	4gg\	.	(4bb-\	.
!LO:TX:a:t=—	!	!	!	!	!	!	!	!	!	!	!	!	!	!	!	!	!	!	!	!	!	!	!
!	!	!	!	!	!	!	!	!	!	!LO:SIC:s=8b-\):v	!	!	!	!	!	!	!	!	!	!	!	!	!
8B-/L	4r	.	4r	.	4r	8B-\J	in-	8e-\)	in-	8b\)	in-	8gg\)	in-	8e-\	.	8g\	.	8B-\	.	.	.	.	.
8B-/J	.	.	.	.	.	8BB-/	-car-	8d\	-car-	8a-\	-car-	8ff\	-car-	8B-\J	.	8f\J	.	8BB-/J	.	8ff\	.	8aa-\)	.
!LO:LB:g=original	!LO:LB:g=original	!	!LO:LB:g=original	!	!	!	!	!	!	!	!	!	!	!LO:LB:g=original	!	!	!	!LO:LB:g=original	!	!	!	!	!
=14	=14	=14	=14	=14	=14	=14	=14	=14	=14	=14	=14	=14	=14	=14	=14	=14	=14	=14	=14	=14	=14	=14	=14
!LO:TX:a:t=-	!	!	!	!	!	!	!	!	!	!	!	!	!	!	!	!	!	!	!	!	!	!	!
8E-/	8r	.	8r	.	16r	8E-\	-na-	(8B-\	-na-	(8g\	-na-	8ee-\	-na-	4G/	.	4e-\	.	4E-\	.	4ee-\	.	4gg\	.
.	.	.	.	.	16ee-'\LL	.	.	.	.	.	.	.	.	.	.	.	.	.	.	.	.	.	.
!	!	!	!LO:TX:a:t=P:problem=mixed beam	!	!	!	!	!	!	!	!	!	!	!	!	!	!	!	!	!	!	!	!
8ryy	8E-\L	.	8g/L	.	16b-'\	8E-\	-tus	8B-\)	-tus	8g\)	-tus	8ee-\	-tus	.	.	.	.	.	.	.	.	.	.
.	.	.	.	.	16ee-'\JJ	.	.	.	.	.	.	.	.	.	.	.	.	.	.	.	.	.	.
4ryy	8E-\	.	8ee-\	.	16gg'\LL	4r	.	4r	.	4r	.	4r	.	4r	.	4r	.	4r	.	4r	.	4r	.
.	.	.	.	.	16ee-'\	.	.	.	.	.	.	.	.	.	.	.	.	.	.	.	.	.	.
.	8E-\J	.	8ee-\J	.	16bb-'\	.	.	.	.	.	.	.	.	.	.	.	.	.	.	.	.	.	.
.	.	.	.	.	16gg'\JJ	.	.	.	.	.	.	.	.	.	.	.	.	.	.	.	.	.	.
!	!	!	!	!	!LO:LB:g=original	!	!	!	!	!LO:LB:g=original	!	!	!	!	!	!	!	!	!	!	!	!	!
=15	=15	=15	=15	=15	=15	=15	=15	=15	=15	=15	=15	=15	=15	=15	=15	=15	=15	=15	=15	=15	=15	=15	=15
4rG	4BB-/	.	4dd\	.	4ff\|	8r	.	8r	.	8r	.	8r	.	8r	.	8r	.	8r	.	16dd\LL	.	(16ff\LL	.
.	.	.	.	.	.	.	.	.	.	.	.	.	.	.	.	.	.	.	.	16ff\JJ	.	16aa-\JJ)	.
.	.	.	.	.	.	8B-\	eſt	(8B-\	eſt	8a-\	eſt	(8ff\	eſt	8B-/L	.	8f\L	.	8BB-/L	.	4ff\	.	4aa-\	.
!LO:TX:a:t=—	!	!	!	!	!	!	!	!	!	!	!	!	!	!	!	!	!	!	!	!	!	!	!
8D/L	4r	.	4r	.	4r	8d\	de	8B-\)	de	8a-\	de	8ff\)	de	8B-/	.	8f\	.	8D/	.	.	.	.	.
8E-/J	.	.	.	.	.	8e-\	spi-	8B-\	spi-	8g\	Spi-	8ee-\	Spi-	8e-/J	.	8g\J	.	8E-/J	.	8ee-\	.	8gg\	.
!	!	!	!	!	!	!	!	!LO:LB:g=original	!	!	!	!LO:LB:g=original	!	!	!	!LO:LB:g=original	!	!	!	!	!	!	!
=16	=16	=16	=16	=16	=16	=16	=16	=16	=16	=16	=16	=16	=16	=16	=16	=16	=16	=16	=16	=16	=16	=16	=16
!LO:TX:a:t=—	!	!	!	!	!	!	!	!	!	!	!	!	!	!	!	!	!	!	!	!	!	!	!
8BB-/	8rGG	.	8r	.	16r	8B-\	-ri-	(8B-\	-ri-	8f\	-ri-	8dd\	-ri-	4B-/	.	4f\	.	4BB-/	.	4dd\	.	4ff\	.
.	.	.	.	.	16dd'\LL	.	.	.	.	.	.	.	.	.	.	.	.	.	.	.	.	.	.
!	!	!	!LO:TX:a:t=P:problem=mixed beam	!	!	!	!	!	!	!	!	!	!	!	!	!	!	!	!	!	!	!	!
8ryy	8B-\L	.	8f/L	.	16b-'\	8B-\	-tu	8B-\)	-tu	8f\	-tu	8dd\	-tu.	.	.	.	.	.	.	.	.	.	.
.	.	.	.	.	16dd'\JJ	.	.	.	.	.	.	.	.	.	.	.	.	.	.	.	.	.	.
4ryy	8B-\	.	8dd\	.	16ff'\LL	4r	.	4r	.	4r	.	4r	.	4r	.	4r	.	4r	.	4r	.	4r	.
.	.	.	.	.	16dd'\	.	.	.	.	.	.	.	.	.	.	.	.	.	.	.	.	.	.
.	8B-\J	.	8dd\J	.	16aa-'\	.	.	.	.	.	.	.	.	.	.	.	.	.	.	.	.	.	.
.	.	.	.	.	16ff'\JJ	.	.	.	.	.	.	.	.	.	.	.	.	.	.	.	.	.	.
!	!	!	!	!	!	!LO:LB:g=original	!	!	!	!	!	!	!	!	!	!	!	!	!	!	!	!	!
=17	=17	=17	=17	=17	=17	=17	=17	=17	=17	=17	=17	=17	=17	=17	=17	=17	=17	=17	=17	=17	=17	=17	=17
!LO:TX:a:t=Fagotto Solo	!	!	!	!	!	!	!	!	!	!	!	!	!	!	!	!	!	!LO:TX:a:t=x	!	!	!	!	!
4r	4E-\	.	4ee-\	.	4gg\	4e-\	San-	4B-\	San-	4g\	San-	4ee-\	San-	4e-\	.	4g\	.	8E-\L	.	(16ee-\LL	.	(16gg\LL	.
.	.	.	.	.	.	.	.	.	.	.	.	.	.	.	.	.	.	.	.	16gg\J)	.	16bb-\J)	.
.	.	.	.	.	.	.	.	.	.	.	.	.	.	.	.	.	.	8E-\	.	(8.gg\J	.	(8.bb-\J	.
8D/L	4rGG	.	4r	.	4r	4d\	-cto	4B-\	-cto	4a-\	-cto	4ff\	-cto	4B-/	.	4f\	.	8D\	.	.	.	.	.
.	.	.	.	.	.	.	.	.	.	.	.	.	.	.	.	.	.	.	.	16ff\LL)	.	16aa-\LL)	.
8D/J	.	.	.	.	.	.	.	.	.	.	.	.	.	.	.	.	.	8D\J	.	(16b-\	.	(16gg\	.
.	.	.	.	.	.	.	.	.	.	.	.	.	.	.	.	.	.	.	.	16a-\JJ)	.	16ff\JJ)	.
=18	=18	=18	=18	=18	=18	=18	=18	=18	=18	=18	=18	=18	=18	=18	=18	=18	=18	=18	=18	=18	=18	=18	=18
!	!LO:TX:b:t=1	!	!LO:N:vis=0	!	!LO:N:vis=0	!	!	!	!	!	!	!	!	!	!	!	!	!	!	!	!	!	!
8C/L	2rGG	.	1r	.	1r	4c\	ex	4c\	ex	4g\	ex	4ee-\	ex	4G/	.	4e-\	.	8C/L	.	16a-/LL	.	(16ff\LL	.
.	.	.	.	.	.	.	.	.	.	.	.	.	.	.	.	.	.	.	.	16g/JJ	.	16ee-\JJ)	.
8C/	.	.	.	.	.	.	.	.	.	.	.	.	.	.	.	.	.	8C/	.	4g/	.	4ee-\	.
8GG/	.	.	.	.	.	4G\	Ma-	4B-\	Ma-	4g\	Ma-	4ee-\	ma-	4e-\	.	4g\	.	8GG/	.	.	.	.	.
8GG/J	.	.	.	.	.	.	.	.	.	.	.	.	.	.	.	.	.	8GG/J	.	8b-\	.	8dd-X\	.
!	!	!	!	!	!	!	!	!	!	!	!	!	!	!	!	!	!	!	!	!LO:LB:g=original	!	!	!
=19	=19	=19	=19	=19	=19	=19	=19	=19	=19	=19	=19	=19	=19	=19	=19	=19	=19	=19	=19	=19	=19	=19	=19
!	!LO:TX:b:t=2	!	!	!	!	!	!	!	!	!	!	!	!	!	!	!	!	!	!	!	!	!	!
8AA-/L	2rGG	.	.	.	.	4A-\	-ri-	4c\	-ri-	4a-\	-ri-	4ff\	-ri-	4f\	.	4a-\	.	8AA-/L	.	8a-\L	.	8cc\L	.
8AA-/	.	.	.	.	.	.	.	.	.	.	.	.	.	.	.	.	.	8AA-/	.	16cc\L	.	16aa-\L	.
.	.	.	.	.	.	.	.	.	.	.	.	.	.	.	.	.	.	.	.	16a-\JJ	.	16ff\JJ	.
!	!	!	!	!	!	!LO:TX:a:t=P:problem=mixed beam	!	!	!	!	!	!	!	!	!	!	!	!	!	!	!	!	!
8BB-/	.	.	.	.	.	8B-\L	.	4B-\	.	8g\L	.	8ee-\L	.	8e-\L	.	8g\L	.	8BB-/	.	(16a-/LL	.	(16ff\LL	.
.	.	.	.	.	.	.	.	.	.	.	.	.	.	.	.	.	.	.	.	16g/)	.	16ee-\)	.
8BB-/J	.	.	.	.	.	8BB-/J	.	.	.	8f\J	.	8dd\J	.	8B-\J	.	8f\J	.	8BB-/J	.	(16g/	.	(16ee-\	.
.	.	.	.	.	.	.	.	.	.	.	.	.	.	.	.	.	.	.	.	16f/JJ)	.	16ddn\JJ)	.
!	!	!	!	!	!	!	!	!	!	!	!	!	!	!	!	!	!	!	!	!	!	!LO:LB:g=original	!
=20	=20	=20	=20	=20	=20	=20	=20	=20	=20	=20	=20	=20	=20	=20	=20	=20	=20	=20	=20	=20	=20	=20	=20
!	!	!	!	!	!	!	!	!	!	!	!	!	!	!	!	!	!	!LO:TX:a:t=P:problem=mixed beam	!	!	!	!	!
8E-/L	4r	.	16r	.	16r	4E-\	-a	4B-\	-a	4g\	-a	4ee-\	-a	4G/	.	4e-\	.	8E-\L	.	4g/	.	4ee-\	.
!	!	!	!LO:TX:a:t=P:problem='forte' czerwonym atramentem	!LO:DY:a:t=forte	!	!	!	!	!	!	!	!	!	!	!	!	!	!	!	!	!	!	!
.	.	.	16g\LL	f	16g\LL|	.	.	.	.	.	.	.	.	.	.	.	.	.	.	.	.	.	.
8E-/J	.	.	16b-\	.	16b-'\	.	.	.	.	.	.	.	.	.	.	.	.	8EE-/J	.	.	.	.	.
.	.	.	16ee-\JJ	.	16ee-'\JJ	.	.	.	.	.	.	.	.	.	.	.	.	.	.	.	.	.	.
!	!LO:TX:a:t=Organo	!	!	!	!	!	!	!	!	!	!	!	!	!	!	!	!	!	!LO:DY:a:t=for	!	!	!	!LO:DY:a:t=forte
4rG	8rBB	.	16gg\LL	.	(16gg\LL	8r	.	8r	.	8r	.	8r	.	8r	.	8r	.	8r	f	8r	.	8rcc	f
.	.	.	16ee-\	.	16ee-\)	.	.	.	.	.	.	.	.	.	.	.	.	.	.	.	.	.	.
!	!	!	!	!	!	!	!	!	!	!	!	!	!	!	!	!	!LO:DY:a:t=forte	!	!	!	!LO:DY:a:t=for	!	!
.	8E-\	.	16bb-\	.	(16bb-\	8E-\	vir-	8B-\	vir-	8g\	vir-	8ee-\	Vir-	8G/	.	8e-\	f	8E-\	.	8ee-\	f	8gg\	.
.	.	.	16gg\JJ	.	16gg\JJ)	.	.	.	.	.	.	.	.	.	.	.	.	.	.	.	.	.	.
*Xcue	*	*	*	*	*	*	*	*	*	*	*	*	*	*	*	*	*	*	*	*	*	*	*
!	!	!	!	!	!	!	!	!	!	!	!	!	!	!LO:LB:g=original	!	!	!	!LO:LB:g=original	!	!	!	!	!
*v	*v	*	*	*	*	*	*	*	*	*	*	*	*	*	*	*	*	*	*	*	*	*	*
=21	=21	=21	=21	=21	=21	=21	=21	=21	=21	=21	=21	=21	=21	=21	=21	=21	=21	=21	=21	=21	=21	=21
!LO:TX:a:t=P:problem=mixed beam	!	!	!	!	!	!	!	!	!	!	!	!	!	!LO:DY:a:t=forte	!	!	!LO:TX:a:t=P:problem=mixed beam	!	!	!	!	!
8B-\L	.	16r	.	16r	8B-\	-gi-	8B-\	-gi-	8f\	-gi-	8dd\	-gi-	8B-/L	f	8f\L	.	8B-\L	.	8dd\L	.	8ff\L	.
.	.	16f/LL	.	16f'/LL	.	.	.	.	.	.	.	.	.	.	.	.	.	.	.	.	.	.
8BB-/J	.	16b-/	.	16b-'/	8B-\	-ne	8B-\	-ne	8f\	-ne	8dd\	-ne	8B-/J	.	8f\J	.	8BB-/J	.	8dd\J	.	8ff\J	.
.	.	16dd/JJ	.	16dd'/JJ	.	.	.	.	.	.	.	.	.	.	.	.	.	.	.	.	.	.
!	!	!	!	!	!	!	!	!	!LO:LB:g=original	!	!LO:LB:g=original	!	!	!	!	!	!	!	!	!	!	!
8r	.	16ff\LL	.	(16ff\LL	8r	.	8r	.	8r	.	8r	.	8r	.	8r	.	8r	.	8r	.	8rcc	.
.	.	16dd\	.	16dd\)	.	.	.	.	.	.	.	.	.	.	.	.	.	.	.	.	.	.
8B-\	.	16aa-\	.	(16aa-\	8B-\	et	8B-\	et	8f\	et	8dd\	et	8B-/	.	8f\	.	8BB-/	.	8dd\	.	8ff\	.
.	.	16ff\JJ	.	16ff\JJ)	.	.	.	.	.	.	.	.	.	.	.	.	.	.	.	.	.	.
!LO:LB:g=original	!	!LO:LB:g=original	!	!	!	!	!LO:LB:g=original	!	!	!	!	!	!	!	!	!	!	!	!	!	!	!
=22	=22	=22	=22	=22	=22	=22	=22	=22	=22	=22	=22	=22	=22	=22	=22	=22	=22	=22	=22	=22	=22	=22
8e-\L	.	16r	.	16r	8E-\	ho-	8B-\	ho-	8g\	ho-	8ee-\	ho-	8e-\L	.	8g\L	.	8E-\L	.	8ee-\L	.	8gg\L	.
.	.	16e-/LL	.	16e-/LL	.	.	.	.	.	.	.	.	.	.	.	.	.	.	.	.	.	.
8E-\J	.	16g/	.	16g/	8E-\	-mo	8B-\	-mo	8g\	-mo	8ee-\	-mo	8e-\J	.	8g\J	.	8E-\J	.	8ee-\J	.	8gg\J	.
.	.	16b-/JJ	.	16b-/JJ	.	.	.	.	.	.	.	.	.	.	.	.	.	.	.	.	.	.
8r	.	16ee-\LL	.	16ee-\LL	8r	.	8r	.	8r	.	8r	.	8r	.	8r	.	8r	.	8r	.	8rcc	.
.	.	16b-\	.	16b-\	.	.	.	.	.	.	.	.	.	.	.	.	.	.	.	.	.	.
8E-\	.	16gg\	.	16gg\	8E-\	Cru-	8e-\	Cru-	8g\	fa-	8ee-\	fa-	8e-\	.	8g\	.	8E-\	.	8ee-\	.	8gg\	.
.	.	16ee-\JJ	.	16ee-\JJ	.	.	.	.	.	.	.	.	.	.	.	.	.	.	.	.	.	.
!	!	!	!	!LO:LB:g=original	!LO:LB:g=original	!	!	!	!	!	!	!	!	!	!LO:LB:g=original	!	!	!	!	!	!	!
=23	=23	=23	=23	=23	=23	=23	=23	=23	=23	=23	=23	=23	=23	=23	=23	=23	=23	=23	=23	=23	=23	=23
*	*	*	*	*	*	*	*	*	*	*	*	*	*	*	*2\right	*	*	*	*2\right	*	*2\right	*
8BB-/L	7	8dd\L	.	16dd\LL	4B-\	-ci-	4d\	-ci-	4a-\	-ctus	4ff\	-ctus	2B-/	.	2f\	.	8BB-/L	.	2dd\	.	2ff\	.
.	.	.	.	16b-\	.	.	.	.	.	.	.	.	.	.	.	.	.	.	.	.	.	.
8BB-/	.	8dd\	.	16dd\	.	.	.	.	.	.	.	.	.	.	.	.	8BB-/	.	.	.	.	.
.	.	.	.	16ff\JJ	.	.	.	.	.	.	.	.	.	.	.	.	.	.	.	.	.	.
8BB-/	.	8dd\	.	16aa-\LL	8B-\	-fi-	8d\	-fi-	8a-\	eſt	8ff\	eſt	.	.	.	.	8BB-/	.	.	.	.	.
.	.	.	.	16ff\	.	.	.	.	.	.	.	.	.	.	.	.	.	.	.	.	.	.
8BB-/J	.	8dd\J	.	16dd\	8B-\	-xus	8d\	-xus	8a-\	cru-	8ff\	cru-	.	.	.	.	8BB-/J	.	.	.	.	.
.	.	.	.	16ff\JJ	.	.	.	.	.	.	.	.	.	.	.	.	.	.	.	.	.	.
=24	=24	=24	=24	=24	=24	=24	=24	=24	=24	=24	=24	=24	=24	=24	=24	=24	=24	=24	=24	=24	=24	=24
!	!	!	!	!	!	!	!	!	!LO:SIC:s=4b-\:v	!	!	!	!	!	!	!	!	!	!	!	!	!
8E-\L	.	8b-\L	.	16gg\LL	4E-\	e-	4e-\	e-	4b\	-ci-	4gg\	-ci-	4e-\	.	4g\	.	8E-\L	.	4ee-\	.	4gg\	.
.	.	.	.	16ee-\	.	.	.	.	.	.	.	.	.	.	.	.	.	.	.	.	.	.
8E-\	.	8b-\	.	16bb-\	.	.	.	.	.	.	.	.	.	.	.	.	8E-\	.	.	.	.	.
.	.	.	.	16gg\JJ	.	.	.	.	.	.	.	.	.	.	.	.	.	.	.	.	.	.
!	!	!	!	!	!	!	!	!	!LO:SIC:s=8b-\:v	!	!	!	!	!	!	!	!	!	!	!	!	!
8D\	6	8b-\	.	16ff\LL	8D\	-ti-	8f\	-ti-	8b\	-fi-	8ff\	-fi-	4B-/	.	4f\	.	8D\	.	4ff\	.	4bb-\	.
.	.	.	.	16dd\	.	.	.	.	.	.	.	.	.	.	.	.	.	.	.	.	.	.
!	!	!	!	!	!	!	!	!	!LO:SIC:s=8b-\:v	!	!	!	!	!	!	!	!	!	!	!	!	!
8D\J	.	8b-\J	.	16bb-\	8D\	-am	8f\	-am	8b\	-xus	8ff\	-xus	.	.	.	.	8D\J	.	.	.	.	.
.	.	.	.	16ff\JJ	.	.	.	.	.	.	.	.	.	.	.	.	.	.	.	.	.	.
=25	=25	=25	=25	=25	=25	=25	=25	=25	=25	=25	=25	=25	=25	=25	=25	=25	=25	=25	=25	=25	=25	=25
*	*	*2\right	*	*	*	*	*	*	*	*	*	*	*	*	*	*	*	*	*	*	*	*
*	*	*tremolo	*	*	*	*	*	*	*	*	*2\right	*	*	*	*	*	*	*	*	*	*	*
!	!	!	!	!	!	!	!	!	!LO:SIC:s=4b-\:v	!	!	!	!	!	!	!	!	!	!	!	!	!
8C/L	7	8ee-\L	.	16gg\LL	2C/	pro_no-	4g\	pro	4b\	e-	2ee-\	eti-	4e-\	.	4g\	.	8C/L	.	2ee-\	.	4bb-\	.
.	.	.	.	16bb-\	.	.	.	.	.	.	.	.	.	.	.	.	.	.	.	.	.	.
8C/	.	8ee-\	.	16bb-\	.	.	.	.	.	.	.	.	.	.	.	.	8C/	.	.	.	.	.
.	.	.	.	16bb-\JJ	.	.	.	.	.	.	.	.	.	.	.	.	.	.	.	.	.	.
*	*	*	*	*tremolo	*	*	*	*	*	*	*	*	*	*	*	*	*	*	*	*	*	*
8C/	n6\	8ee-\	.	16aan\LL	.	.	4f\	no-	4an\	-ti-	.	.	4f\	.	4f\	.	8C/	.	.	.	4aa\	.
.	.	.	.	16aan\	.	.	.	.	.	.	.	.	.	.	.	.	.	.	.	.	.	.
8C/J	.	8ee-\J	.	16aan\	.	.	.	.	.	.	.	.	.	.	.	.	8C/J	.	.	.	.	.
.	.	.	.	16aan\JJ	.	.	.	.	.	.	.	.	.	.	.	.	.	.	.	.	.	.
*	*	*	*	*Xtremolo	*	*	*	*	*	*	*	*	*	*	*	*	*	*	*	*	*	*
*	*	*Xtremolo	*	*	*	*	*	*	*	*	*	*	*	*	*	*	*	*	*	*	*	*
!	!	!	!	!	!	!	!	!	!	!	!LO:LB:g=original	!	!	!	!	!	!	!	!LO:LB:g=original	!	!	!
=26	=26	=26	=26	=26	=26	=26	=26	=26	=26	=26	=26	=26	=26	=26	=26	=26	=26	=26	=26	=26	=26	=26
*^	*	*	*	*	*	*	*	*	*	*	*	*	*	*	*	*	*	*	*	*	*	*
*cue	*	*	*	*	*	*	*	*	*	*	*	*	*	*	*	*	*	*	*	*	*	*	*
!	!	!	!	!	!	!	!	!	!	!LO:SIC:s=4b-\:v	!	!	!	!LO:TX:a:t=Soli	!	!LO:TX:a:t=Soli	!	!LO:TX:a:t=Soli	!	!LO:TX:a:t=Soli	!	!LO:TX:a:t=Soli	!
4rG	4BB-/	.	4dd\	.	4bb-\	4BB-/	-bis	4f\	-bis	4b\	-am	4dd\	-am	4B-/	.	4f\	.	8BB-/L	.	16dd'\LL	.	16bb-'\LL	.
.	.	.	.	.	.	.	.	.	.	.	.	.	.	.	.	.	.	.	.	16dd'\	.	16ff'\	.
.	.	.	.	.	.	.	.	.	.	.	.	.	.	.	.	.	.	8BB-/	.	16dd'\	.	16ff'\	.
.	.	.	.	.	.	.	.	.	.	.	.	.	.	.	.	.	.	.	.	16dd'\JJ	.	16ff'\JJ	.
!LO:TX:a:t=Fagotto Solo	!	!	!	!	!	!	!	!	!	!	!	!	!	!	!	!	!	!	!	!	!	!	!
8BB-/L	4rBB	.	4r	.	4r	4r	.	4r	.	4r	.	4r	.	4BB-/	.	4B-/	.	8BB-/	.	(16dd\LL	.	(16ff\LL	.
.	.	.	.	.	.	.	.	.	.	.	.	.	.	.	.	.	.	.	.	32ee-\L	.	32gg\L	.
.	.	.	.	.	.	.	.	.	.	.	.	.	.	.	.	.	.	.	.	32ff\JJJ)	.	32aa-\JJJ)	.
8BB-/J	.	.	.	.	.	.	.	.	.	.	.	.	.	.	.	.	.	8BB-/J	.	(32gg\LLL	.	(32bb-\LLL	.
.	.	.	.	.	.	.	.	.	.	.	.	.	.	.	.	.	.	.	.	32ff\)	.	32aa-\)	.
.	.	.	.	.	.	.	.	.	.	.	.	.	.	.	.	.	.	.	.	(32ee-\	.	(32gg\	.
.	.	.	.	.	.	.	.	.	.	.	.	.	.	.	.	.	.	.	.	32dd\JJJ)	.	32ff\JJJ)	.
!	!	!	!	!	!	!	!	!LO:LB:g=original	!	!LO:LB:g=original	!	!	!	!	!	!	!	!	!	!	!	!LO:LB:g=original	!
=27	=27	=27	=27	=27	=27	=27	=27	=27	=27	=27	=27	=27	=27	=27	=27	=27	=27	=27	=27	=27	=27	=27	=27
!	!LO:TX:b:t=1	!	!	!	!LO:TX:a:t=4	!	!	!	!	!	!	!	!	!	!	!	!	!	!	!	!	!	!
!	!	!	!LO:N:vis=00	!	!LO:N:vis=00	!	!	!	!	!	!	!	!	!	!	!	!	!	!	!	!	!	!
8BB-/L	2rGG	.	0r	.	0r	8r	.	8r	.	8r	.	8r	.	4BB-/	.	4B-/	.	8BB-/L	.	(16dd\LL	.	(16ff\LL	.
.	.	.	.	.	.	.	.	.	.	.	.	.	.	.	.	.	.	.	.	16ee-\)	.	16gg\)	.
8BB-/	.	.	.	.	.	8B-\	pro	8B-\	pro	8g\	pro	8ee-\	pro	.	.	.	.	8BB-/	.	16ee-\|	.	16gg'\	.
.	.	.	.	.	.	.	.	.	.	.	.	.	.	.	.	.	.	.	.	16ee-\JJ|	.	16gg'\JJ	.
!	!	!	!	!	!	!	!	!	!	!	!	!LO:SIC:s=4cc\:v	!	!	!	!	!	!	!	!	!	!	!
8BB-/	.	.	.	.	.	4B-\	no-	4B-\	no-	4an\	no-	4cc-\	no-	8BB-/L	.	8B-/L	.	8BB-/	.	(8.cc\L	.	(8.aa\L	.
8BB-/J	.	.	.	.	.	.	.	.	.	.	.	.	.	8BB-/J	.	8B-/J	.	8BB-/J	.	.	.	.	.
.	.	.	.	.	.	.	.	.	.	.	.	.	.	.	.	.	.	.	.	32b-\LL	.	32gg\LL	.
!	!	!	!	!	!	!	!	!	!	!	!	!	!	!	!	!	!	!	!	!	!	!LO:N:vis=64	!
.	.	.	.	.	.	.	.	.	.	.	.	.	.	.	.	.	.	.	.	32cc\JJJ)	.	32aa\JJJ)	.
!	!	!	!	!	!	!	!	!	!	!	!	!	!	!	!	!	!	!LO:LB:g=original	!	!	!	!	!
=28	=28	=28	=28	=28	=28	=28	=28	=28	=28	=28	=28	=28	=28	=28	=28	=28	=28	=28	=28	=28	=28	=28	=28
*tremolo	*	*	*	*	*	*	*	*	*	*	*	*	*	*	*	*	*	*	*	*	*	*	*
!	!LO:TX:b:t=2	!	!	!	!	!	!	!	!	!LO:SIC:s=4b-\:v	!	!	!	!	!	!	!	!	!	!	!	!	!
8BB-/L	2rGG	.	.	.	.	4B-\	-bis	4B-\	-bis	4b\	-bis	4dd\	-bis	4BB-/	.	4B-/	.	8BB-/L	.	16dd'\LL	.	(16bb-\LL	.
.	.	.	.	.	.	.	.	.	.	.	.	.	.	.	.	.	.	.	.	16dd'\	.	16ff\)	.
8BB-/	.	.	.	.	.	.	.	.	.	.	.	.	.	.	.	.	.	8BB-/	.	16dd'\	.	16ff'\	.
.	.	.	.	.	.	.	.	.	.	.	.	.	.	.	.	.	.	.	.	16dd'\JJ	.	16ff'\JJ	.
8BB-/	.	.	.	.	.	4r	.	4r	.	4r	.	4r	.	4BB-/	.	4B-/	.	8BB-/	.	(16dd\LL	.	(16ff\LL	.
.	.	.	.	.	.	.	.	.	.	.	.	.	.	.	.	.	.	.	.	32ee-\L	.	32gg\L	.
.	.	.	.	.	.	.	.	.	.	.	.	.	.	.	.	.	.	.	.	32ff\JJJ)	.	32aa-\JJJ)	.
8BB-/J	.	.	.	.	.	.	.	.	.	.	.	.	.	.	.	.	.	8BB-/J	.	(32gg\LLL	.	(32bb-\LLL	.
.	.	.	.	.	.	.	.	.	.	.	.	.	.	.	.	.	.	.	.	32ff\)	.	32aa-\)	.
.	.	.	.	.	.	.	.	.	.	.	.	.	.	.	.	.	.	.	.	(32ee-\	.	(32gg\	.
.	.	.	.	.	.	.	.	.	.	.	.	.	.	.	.	.	.	.	.	32dd\JJJ)	.	32ff\JJJ)	.
=29	=29	=29	=29	=29	=29	=29	=29	=29	=29	=29	=29	=29	=29	=29	=29	=29	=29	=29	=29	=29	=29	=29	=29
!	!LO:TX:b:t=3	!	!	!	!	!	!	!	!	!	!	!	!	!	!	!	!	!	!	!	!	!	!
8BB-/L	2rGG	.	.	.	.	8r	.	8r	.	8r	.	8r	.	4BB-/	.	4B-/	.	8BB-/L	.	(16dd\LL	.	(16ff\LL	.
.	.	.	.	.	.	.	.	.	.	.	.	.	.	.	.	.	.	.	.	16ee-\)	.	16gg\)	.
8BB-/	.	.	.	.	.	8B-\	pro	8B-\	pro	8g\	pro	8ee-\	pro	.	.	.	.	8BB-/	.	16ee-\|	.	16gg'\	.
.	.	.	.	.	.	.	.	.	.	.	.	.	.	.	.	.	.	.	.	16ee-\JJ|	.	16gg'\JJ	.
!	!	!	!	!	!	!	!	!	!	!	!	!	!	!	!	!	!	!	!	!LO:LB:g=original	!	!	!
!	!	!	!	!	!	!	!	!	!	!	!	!LO:SIC:s=4cc\:v	!	!	!	!	!	!	!	!	!	!	!
8BB-/	.	.	.	.	.	4B-\	no-	4B-\	no-	4an\	no-	4cc-\	no-	8BB-/L	.	8B-/L	.	8BB-/	.	(8.cc\L	.	(8.aa\L	.
8BB-/J	.	.	.	.	.	.	.	.	.	.	.	.	.	8BB-/J	.	8B-/J	.	8BB-/J	.	.	.	.	.
.	.	.	.	.	.	.	.	.	.	.	.	.	.	.	.	.	.	.	.	32b-\LL	.	32gg\LL	.
!	!	!	!	!	!	!	!	!	!	!	!	!	!	!	!	!	!	!	!	!	!	!LO:N:vis=64	!
.	.	.	.	.	.	.	.	.	.	.	.	.	.	.	.	.	.	.	.	32cc\JJJ)	.	32aa\JJJ)	.
*Xtremolo	*	*	*	*	*	*	*	*	*	*	*	*	*	*	*	*	*	*	*	*	*	*	*
!	!	!	!	!	!	!	!	!	!	!	!	!	!	!LO:LB:g=original	!	!	!	!	!	!	!	!	!
=30	=30	=30	=30	=30	=30	=30	=30	=30	=30	=30	=30	=30	=30	=30	=30	=30	=30	=30	=30	=30	=30	=30	=30
!LO:TX:a:t=P:problem=mixed beam	!	!	!	!	!	!	!	!	!	!	!	!	!	!	!	!	!	!	!	!	!	!	!
!	!LO:TX:b:t=4	!	!	!	!	!	!	!	!	!LO:SIC:s=4b-\:v	!	!	!	!	!	!	!	!LO:TX:a:t=P:problem=mixed beam	!	!	!	!LO:TX:a:t=P:problem=wspólna belka 8 i 32 to najwyższa belka grupy 32	!
8BB-/L	2rGG	.	.	.	.	4B-\	-bis	4B-\	-bis	4b\	-bis	4dd\	-bis	8BB-/L	.	8B-/L	.	8BB-/L	.	8dd\L	.	8bb-\L	.
8B-\	.	.	.	.	.	.	.	.	.	.	.	.	.	8BB-/	.	8B-/	.	8B-\	.	(32dd\LL	.	(32ff\LL	.
.	.	.	.	.	.	.	.	.	.	.	.	.	.	.	.	.	.	.	.	32cc\	.	32ee-\)	.
.	.	.	.	.	.	.	.	.	.	.	.	.	.	.	.	.	.	.	.	32dd\	.	32ff\	.
.	.	.	.	.	.	.	.	.	.	.	.	.	.	.	.	.	.	.	.	32ee-\JJJ)	.	32gg\JJJ	.
8BB-/J	.	.	.	.	.	4r	.	4r	.	4r	.	4r	.	8BB-/J	.	8B-/J	.	8BB-/J	.	8dd\	.	8ff\	.
8r	.	.	.	.	.	.	.	.	.	.	.	.	.	8r	.	8r	.	8r	.	8r	.	8rcc	.
*v	*v	*	*	*	*	*	*	*	*	*	*	*	*	*	*	*	*	*	*	*	*	*	*
==	==	==	==	==	==	==	==	==	==	==	==	==	==	==	==	==	==	==	==	==	==	==
*-	*-	*-	*-	*-	*-	*-	*-	*-	*-	*-	*-	*-	*-	*-	*-	*-	*-	*-	*-	*-	*-	*-
!!!system-decoration: [(s1,s2,s3)][(s4,s5)][(s6,s7,s8,s9)][(s10,s11)]s12
!!!RDF**kern: < = below
!!!RDF**kern: | = vertical stroke
!!!ENC: Kamil Watkowski
!!!END: 2020-07-19
!!!ENC: Zofia Niedbalska
!!!END: 2020-11-21
!!!YEC: Copyright 2022 Narodowy Instytut Fryderyka Chopina (https://polishscores.org)
!!!YEM: License CC-BY-4.0 (https://creativecommons.org/licenses/by/4.0)
